packages/radix-icons/outline/15/link-none-angled.svg

<svg width="15" height="15" fill="none" xmlns="http://www.w3.org/2000/svg">
  <path
    fill-rule="evenodd"
    clip-rule="evenodd"
    d="M2.94903 7.10109C2.96314 7.08698 2.97745 7.07268 2.99195 7.05818L3.61067 6.43946C3.80593 6.2442 4.12251 6.2442 4.31777 6.43946C4.51304 6.63472 4.51304 6.9513 4.31777 7.14657L3.69905 7.76529C3.27205 8.19229 3.10975 8.35775 3.00489 8.51212C2.54542 9.18848 2.53642 10.0436 2.95367 10.679C3.04841 10.8232 3.19878 10.9773 3.61067 11.3892C4.02255 11.8011 4.17662 11.9515 4.32089 12.0462C4.95623 12.4635 5.8114 12.4545 6.48775 11.995C6.64212 11.8901 6.80759 11.7278 7.23459 11.3008L7.85331 10.6821C8.04857 10.4868 8.36515 10.4868 8.56041 10.6821C8.75568 10.8774 8.75568 11.1939 8.56041 11.3892L7.9417 12.0079C7.9272 12.0224 7.9129 12.0367 7.89879 12.0508C7.52925 12.4205 7.29278 12.657 7.04968 12.8222C6.05571 13.4974 4.762 13.5323 3.77196 12.8821C3.5305 12.7235 3.29949 12.4924 2.94819 12.141C2.93352 12.1263 2.91865 12.1114 2.90356 12.0963C2.88847 12.0812 2.87359 12.0663 2.85892 12.0517C2.50748 11.7004 2.27637 11.4694 2.1178 11.2279C1.46761 10.2379 1.50247 8.94417 2.1777 7.95019C2.34284 7.70709 2.57938 7.47062 2.94903 7.10109ZM8.51175 3.00525C8.35739 3.11012 8.19192 3.27242 7.76492 3.69942L7.1462 4.31814C6.95094 4.5134 6.63436 4.5134 6.43909 4.31814C6.24383 4.12288 6.24383 3.8063 6.43909 3.61103L7.05781 2.99231C7.07231 2.97781 7.08661 2.96351 7.10072 2.9494C7.47026 2.57975 7.70673 2.34321 7.94983 2.17807C8.9438 1.50284 10.2375 1.46798 11.2276 2.11817C11.469 2.27674 11.7 2.50785 12.0513 2.85928C12.066 2.87395 12.0809 2.88883 12.0959 2.90393C12.111 2.91902 12.1259 2.9339 12.1406 2.94856C12.492 3.29985 12.7231 3.53087 12.8817 3.77232C13.5319 4.76237 13.497 6.05607 12.8218 7.05005C12.6567 7.29315 12.4201 7.52962 12.0505 7.89916C12.0364 7.91326 12.0221 7.92756 12.0076 7.94206L11.3888 8.56078C11.1936 8.75604 10.877 8.75604 10.6817 8.56078C10.4865 8.36552 10.4865 8.04894 10.6817 7.85367L11.3005 7.23495C11.7275 6.80795 11.8898 6.64249 11.9946 6.48812C12.4541 5.81176 12.4631 4.9566 12.0458 4.32126C11.9511 4.17699 11.8007 4.02292 11.3888 3.61103C10.977 3.19915 10.8229 3.04878 10.6786 2.95404C10.0433 2.53679 9.18811 2.54579 8.51175 3.00525Z"
    fill="currentColor"
  />
</svg>

<svg width="15" height="15" fill="none" xmlns="http://www.w3.org/2000/svg">
  <path
    fill-rule="evenodd"
    clip-rule="evenodd"
    d="M2.949 7.101l.043-.043.619-.619a.5.5 0 11.707.708l-.619.618c-.427.427-.59.593-.694.747-.46.676-.469 1.532-.051 2.167.094.144.245.298.657.71.412.412.566.563.71.657.635.418 1.49.409 2.167-.051.154-.105.32-.267.747-.694l.618-.619a.5.5 0 11.707.707l-.618.619-.043.043c-.37.37-.606.606-.85.771-.993.675-2.287.71-3.277.06-.241-.159-.473-.39-.824-.741l-.044-.045-.045-.044c-.352-.352-.583-.583-.741-.824-.65-.99-.616-2.284.06-3.278.165-.243.401-.48.771-.849zm5.563-4.096c-.155.105-.32.267-.747.694l-.619.62a.5.5 0 01-.707-.708l.619-.619.043-.043c.37-.37.606-.606.849-.77.994-.676 2.288-.711 3.278-.06.241.158.472.389.823.74a14.487 14.487 0 01.09.09c.351.35.582.582.74.823.65.99.616 2.284-.06 3.278-.164.243-.4.48-.77.85-.015.013-.029.028-.043.042l-.62.619a.5.5 0 11-.706-.707l.618-.619c.427-.427.59-.593.695-.747.46-.676.468-1.531.05-2.167-.094-.144-.244-.298-.656-.71-.412-.412-.566-.562-.71-.657-.636-.417-1.49-.408-2.167.051z"
    fill="currentColor"
  />
</svg>
